X:1180
T: Harbourstown House
T: Teach Bhaile an Chuain
S: B.Breathnach:"Ceol Rince na hEireann" IV/121
Z: B.Black
L: 1/8
M: 4/4
R: reel
K: G
gdBG DGBd|gdBG AE E2|gdBG DGBd|(3efg dB cBAB|
gdBG D2 Bd|(3cBA BG AGEG|Bdef gdBG|(3cBA FA G2 ||
Bc|d2 gd Bdgd|bdBG FGAB|cAeAaAfg|(3agf ge d2 Bc|
d2 gd Bdgd|gdaf gdBd|(3cBA FA DFAB|(3cBA FA G2 Bd ||
